components/AnnouncementBar/logos/color-sumologic.svg

<svg width="347" height="65" viewBox="0 0 347 65" fill="none" xmlns="http://www.w3.org/2000/svg">
<path d="M71.1687 14.4041V50.959H62.6862V47.0857C60.7611 50.2328 57.2117 52.0484 52.038 52.0484C43.4352 52.0484 39.1638 47.5698 39.1638 40.4283V14.4041H48.4284V37.9469C48.4284 41.7598 50.4738 43.9991 54.4443 43.9991C59.0766 43.9991 61.9041 41.3361 61.9041 36.4339V14.4041H71.1687ZM131.328 25.419V50.959H122.064V28.203C122.064 23.8454 120.319 21.1825 116.288 21.1825C112.258 21.1825 109.911 24.2086 109.911 28.4451V50.959H100.647V28.203C100.647 23.5428 98.7217 21.1825 94.8715 21.1825C90.7807 21.1825 88.4946 24.2086 88.4946 28.4451V50.959H79.2301V14.4041H87.8329V18.459C89.9385 14.9488 93.4277 13.1937 98.1803 13.1937C102.813 13.1937 106.302 15.1304 108.287 18.5801C110.754 15.0093 114.423 13.1937 119.176 13.1937C126.937 13.1937 131.328 17.8538 131.328 25.419ZM205.685 50.959H196.421V0.121043H205.685V50.959ZM306.152 50.959H296.887V14.4041H306.152V50.959ZM296.707 8.89665H306.272V0H296.707V8.89665ZM340.864 38.4916C337.074 42.5466 334.487 44.1201 330.998 44.1201C326.847 44.1201 323.899 41.6993 322.575 37.9469V27.2952C323.959 23.4823 326.907 21.0615 331.118 21.0615C334.186 21.0615 336.653 22.1508 340.563 25.8426L346.338 20.0931C341.706 15.0093 337.194 13.1331 331.118 13.1331C322.635 13.1331 316.078 17.6117 313.491 25.1164V40.1257C316.018 47.6304 322.455 52.0484 330.877 52.0484C337.435 52.0484 341.947 49.8696 347 43.5754L340.864 38.4916ZM19.0706 28.4451C16.5439 27.9004 14.7391 27.4162 13.7164 27.1741C12.453 26.811 11.4905 26.3268 11.0092 25.6611V22.8771C11.8514 21.5456 13.8968 20.6983 16.7243 20.6983C20.6347 20.6983 23.3419 21.6061 27.6132 24.9953L32.6064 18.9432C27.5531 14.7067 23.2216 13.1937 16.965 13.1937C9.74584 13.1937 4.7526 16.1592 2.76734 20.3957V29.595C4.33148 32.6816 7.94105 34.4367 15.1602 36.0102C17.7471 36.6155 19.4917 37.0391 20.5144 37.2207C21.8379 37.6443 23.0411 38.189 23.7028 39.1574V42.365C22.8005 43.8175 20.6347 44.6043 17.8072 44.6043C15.7618 44.6648 13.7765 44.2412 11.9116 43.4544C10.1068 42.7281 8.00121 41.3361 5.3542 39.1574L0 45.149C5.77531 50.2933 10.6482 52.0484 17.5666 52.0484C24.9662 52.0484 30.2001 49.2039 32.1853 44.6648V35.405C30.5009 31.9553 26.4702 30.1397 19.0706 28.4451ZM155.633 13.1331C147.27 13.1331 140.713 17.6723 138.006 24.9348V40.3073C140.653 47.5698 147.27 52.1089 155.633 52.1089C163.995 52.1089 170.492 47.5698 173.139 40.3678V24.8743C170.432 17.6723 163.874 13.1331 155.633 13.1331ZM164.175 38.0075C162.731 41.8808 159.663 44.1806 155.572 44.1806C151.542 44.1806 148.353 41.8808 146.91 38.0075V27.2346C148.353 23.3613 151.421 21.0009 155.572 21.0009C159.663 21.0009 162.671 23.3613 164.115 27.2346L164.175 38.0075ZM230.471 13.1331C222.109 13.1331 215.551 17.6723 212.844 24.9348V40.3073C215.551 47.5698 222.109 52.1089 230.471 52.1089C238.833 52.1089 245.33 47.5698 247.977 40.3678V24.8743C245.33 17.6723 238.773 13.1331 230.471 13.1331ZM239.014 38.0075C237.57 41.8808 234.502 44.1806 230.471 44.1806C226.44 44.1806 223.252 41.8808 221.808 38.0075V27.2346C223.252 23.3613 226.32 21.0009 230.471 21.0009C234.622 21.0009 237.57 23.3613 239.014 27.2346V38.0075ZM280.223 14.4041V18.459C277.877 14.9488 274.207 13.1937 269.154 13.1937C262.295 13.1937 256.761 17.4302 254.354 24.148V39.2179C256.701 45.9358 262.235 50.1117 269.154 50.1117C273.786 50.1117 277.275 48.5382 279.742 45.4516V48.3566C279.742 54.4088 276.252 57.2533 270.838 57.2533C266.807 57.2533 263.499 56.0428 258.205 52.8957L253.693 59.6136C258.806 63.0633 264.822 64.9395 270.958 65C281.186 65 288.705 59.4926 288.705 49.2039V14.4041H280.223ZM279.08 36.6155C277.696 40.0652 274.809 42.2439 271.199 42.2439C267.589 42.2439 264.702 40.1257 263.318 36.6155V26.6294C264.702 23.1797 267.529 21.0615 271.199 21.0615C274.869 21.0615 277.696 23.1797 279.08 26.6294V36.6155Z" fill="#000099"/>
</svg>

<svg xmlns="http://www.w3.org/2000/svg" width="347" height="65" viewBox="0 0 347 65">
  <path fill="#009" d="M71.169 14.404V50.96h-8.483v-3.873c-1.925 3.147-5.474 4.962-10.648 4.962-8.603 0-12.874-4.478-12.874-11.62V14.404h9.264v23.543c0 3.813 2.046 6.052 6.016 6.052 4.633 0 7.46-2.663 7.46-7.565v-22.03h9.265Zm60.159 11.015v25.54h-9.264V28.203c0-4.358-1.745-7.02-5.776-7.02-4.03 0-6.377 3.026-6.377 7.262V50.96h-9.264V28.203c0-4.66-1.925-7.02-5.776-7.02-4.09 0-6.376 3.026-6.376 7.262V50.96H79.23V14.404h8.603v4.055c2.106-3.51 5.595-5.265 10.347-5.265 4.633 0 8.122 1.936 10.107 5.386 2.467-3.57 6.136-5.386 10.889-5.386 7.761 0 12.152 4.66 12.152 12.225Zm74.357 25.54h-9.264V.121h9.264v50.838Zm100.467 0h-9.265V14.404h9.265V50.96Zm-9.445-42.062h9.565V0h-9.565v8.897Zm44.157 29.595c-3.79 4.055-6.377 5.628-9.866 5.628-4.151 0-7.099-2.42-8.423-6.173V27.295c1.384-3.813 4.332-6.234 8.543-6.234 3.068 0 5.535 1.09 9.445 4.782l5.775-5.75c-4.632-5.084-9.144-6.96-15.22-6.96-8.483 0-15.04 4.479-17.627 11.983v15.01c2.527 7.504 8.964 11.922 17.386 11.922 6.558 0 11.07-2.178 16.123-8.473l-6.136-5.083ZM19.071 28.445c-2.527-.545-4.332-1.029-5.355-1.27-1.263-.364-2.225-.848-2.707-1.514v-2.784c.842-1.331 2.888-2.179 5.715-2.179 3.91 0 6.618.908 10.89 4.297l4.992-6.052c-5.053-4.236-9.384-5.75-15.641-5.75-7.22 0-12.212 2.966-14.198 7.203v9.199c1.564 3.087 5.174 4.842 12.393 6.415 2.587.605 4.332 1.03 5.354 1.21 1.324.424 2.527.969 3.189 1.937v3.208c-.902 1.453-3.068 2.24-5.896 2.24-2.045.06-4.03-.364-5.895-1.15-1.805-.727-3.91-2.119-6.558-4.298L0 45.15c5.775 5.144 10.648 6.9 17.567 6.9 7.4 0 12.633-2.845 14.618-7.384v-9.26c-1.684-3.45-5.715-5.265-13.114-6.96Zm136.562-15.312c-8.363 0-14.92 4.54-17.627 11.802v15.372c2.647 7.263 9.264 11.802 17.627 11.802 8.362 0 14.859-4.54 17.506-11.741V24.874c-2.707-7.202-9.265-11.74-17.506-11.74Zm8.542 24.875c-1.444 3.873-4.512 6.173-8.603 6.173-4.03 0-7.219-2.3-8.662-6.173V27.235c1.443-3.874 4.511-6.234 8.662-6.234 4.091 0 7.099 2.36 8.543 6.234l.06 10.773Zm66.296-24.875c-8.362 0-14.92 4.54-17.627 11.802v15.372c2.707 7.263 9.265 11.802 17.627 11.802 8.362 0 14.859-4.54 17.506-11.741V24.874c-2.647-7.202-9.204-11.74-17.506-11.74Zm8.543 24.875c-1.444 3.873-4.512 6.173-8.543 6.173s-7.219-2.3-8.663-6.173V27.235C223.252 23.36 226.32 21 230.471 21c4.151 0 7.099 2.36 8.543 6.234v10.773Zm41.209-23.604v4.055c-2.346-3.51-6.016-5.265-11.069-5.265-6.859 0-12.393 4.236-14.8 10.954v15.07c2.347 6.718 7.881 10.894 14.8 10.894 4.632 0 8.121-1.574 10.588-4.66v2.905c0 6.052-3.49 8.896-8.904 8.896-4.031 0-7.339-1.21-12.633-4.357l-4.512 6.718A31.463 31.463 0 0 0 270.958 65c10.228 0 17.747-5.507 17.747-15.796v-34.8h-8.482Zm-1.143 22.211c-1.384 3.45-4.271 5.629-7.881 5.629-3.61 0-6.497-2.118-7.881-5.629V26.63c1.384-3.45 4.211-5.568 7.881-5.568s6.497 2.119 7.881 5.568v9.986Z"/>
</svg>
